X: 91
T:Pasacorredoiras de Cangas
M:2/4
L:1/16
Q:100
C:Trad.
S:Canc. Casto Sampedro
R:Pasacorredoiras
K:C
G2 | cBAG FEDC | E"F."c"~"E2 D4 | EFEC EFEB, | D"F."c"~"D2 C2G2 |
cBAG FEDC | E"F."c"~"E2 D4 | EFEC EFEB, C6 :| |: EF| G2EF G2AB | 
c2"~"A2 G2AB | c3A F3A | GAGE C2EF | G2 EF G2AB | c2"~"A2 G2AB |
c2BA GEFD | {B,}C6 :||

